X: 08061
T: KATIA ROSE'S WALTZ
C: Bob McQuillen 18 Apr 91
B: Bob's Note Book 8 #_
%R: waltz
Z: 2021 John Chambers <jc:trillian.mit.edu>
M: 3/4
L: 1/8
K: D
FE \
| "D"D4 FG | A4 de | f2 f3 e | d2 A2 FE | D4 FG | "Bm"A4 de | "Em"f3 g fd | "A7"e4 fg |
| "D"a2 f3 e | "D7"d2 f3 e | "G"d2 c3 B | "D"B2 A2 FG | A3 B c2 | "G"d2 A2 G2 | "A7"F3 D E2 | "D"D4 :|
|: de \
| "D"f2 f3 g | fe d2 fe | "G"d2 c3 B | "D"B2 A2 de | f2 f3 g | "Bm"fe d2 dc | "E7"B2 c2 d2 | "A7"e4 de |
| "D"f2 f3 e | d2 A2 A2 | "G"B3 c d2 | "D"A2 F2 D2 | "G"G3 A B2 | "D"A d3 F2 | "A7"E3 D C2 | "D"D4 :|
%%begintext align
%% Katia Rose is
%% one of Joe and Linda Fallon's cute little daughters.
%% She's a real jewel as I'm sure you'll agree,
%% and I just knew she had a tune coming her
%% way from the first moment I saw her. Much love
%% to you, Katie - I hope you like your waltz!
%%endtext

%%sep 1 1 500

%%sep 1 1 500

